clients/portal/components/icon/svgs/link_off.svg

<svg width="24" height="24" viewBox="0 0 24 24" fill="none" xmlns="http://www.w3.org/2000/svg">
<path d="M14.39 11.0001L16 12.6101V11.0001H14.39ZM17 7.00011H13V8.90011H17C18.71 8.90011 20.1 10.2901 20.1 12.0001C20.1 13.2701 19.33 14.3701 18.23 14.8401L19.63 16.2401C21.05 15.3601 22 13.7901 22 12.0001C22 9.24011 19.76 7.00011 17 7.00011ZM2 4.27011L5.11 7.38011C3.29 8.12011 2 9.91011 2 12.0001C2 14.7601 4.24 17.0001 7 17.0001H11V15.1001H7C5.29 15.1001 3.9 13.7101 3.9 12.0001C3.9 10.4101 5.11 9.10011 6.66 8.93011L8.73 11.0001H8V13.0001H10.73L13 15.2701V17.0001H14.73L18.74 21.0101L20.15 19.6001L3.41 2.86011L2 4.27011Z" fill="#475569"/>
</svg>

<svg xmlns="http://www.w3.org/2000/svg" height="24" viewBox="0 0 24 24" width="24"><path d="M0 0h24v24H0V0z" fill="currentColor"/><path d="M14.39 11L16 12.61V11zM17 7h-4v1.9h4c1.71 0 3.1 1.39 3.1 3.1 0 1.27-.77 2.37-1.87 2.84l1.4 1.4C21.05 15.36 22 13.79 22 12c0-2.76-2.24-5-5-5zM2 4.27l3.11 3.11C3.29 8.12 2 9.91 2 12c0 2.76 2.24 5 5 5h4v-1.9H7c-1.71 0-3.1-1.39-3.1-3.1 0-1.59 1.21-2.9 2.76-3.07L8.73 11H8v2h2.73L13 15.27V17h1.73l4.01 4.01 1.41-1.41L3.41 2.86 2 4.27z"/></svg>
